projects/flag-game/flags/Lithuania.svg

<svg viewBox="0 0 1000 600" xmlns="http://www.w3.org/2000/svg"><path d="m0 0h1000v600h-1000z" fill="#fdb913"/><g fill-rule="evenodd"><path d="m0 300h1000v300h-1000zm0 0" fill="#c1272d"/><path d="m0 200h1000v200h-1000zm0 0" fill="#006a44"/></g></svg>

<?xml version="1.0" encoding="UTF-8"?>
<svg xmlns="http://www.w3.org/2000/svg" xmlns:xlink="http://www.w3.org/1999/xlink" viewBox="0 0 1000 600" version="1.1">
<g id="surface705">
<rect x="0" y="0" width="1000" height="600" style="fill:rgb(99.214172%,72.547913%,7.450867%);fill-opacity:1;stroke:none;"/>
<path style=" stroke:none;fill-rule:evenodd;fill:rgb(75.68512%,15.293884%,17.64679%);fill-opacity:1;" d="M 0 300 L 1000 300 L 1000 600 L 0 600 Z M 0 300 "/>
<path style=" stroke:none;fill-rule:evenodd;fill:rgb(0%,41.567993%,26.66626%);fill-opacity:1;" d="M 0 200 L 1000 200 L 1000 400 L 0 400 Z M 0 200 "/>
</g>
</svg>
